src/img/networks/youtube.svg

<svg width="35" height="35" viewBox="0 0 35 35" fill="none" xmlns="http://www.w3.org/2000/svg">
<circle cx="17.5" cy="17.5" r="17" fill="white" stroke="#44220F"/>
<g clip-path="url(#clip0)">
<path d="M20.4627 17.281L16.9279 15.3469C16.7247 15.2357 16.4845 15.2399 16.2853 15.3579C16.0859 15.4761 15.967 15.6848 15.967 15.9165V19.7515C15.967 19.9821 16.0852 20.1904 16.2832 20.3087C16.3866 20.3705 16.5012 20.4015 16.6161 20.4015C16.7213 20.4015 16.8268 20.3755 16.9238 20.3232L20.4587 18.4225C20.6685 18.3096 20.7995 18.0914 20.8005 17.853C20.8013 17.6146 20.6719 17.3955 20.4627 17.281ZM16.9046 19.269V16.4028L19.5465 17.8484L16.9046 19.269Z" fill="#44220F"/>
<path d="M25.8823 14.7977L25.8815 14.7904C25.868 14.6616 25.7331 13.5161 25.1762 12.9335C24.5325 12.2482 23.8028 12.1649 23.4519 12.125C23.4228 12.1217 23.3962 12.1187 23.3724 12.1155L23.3444 12.1125C21.2292 11.9587 18.0348 11.9377 18.0028 11.9376L18 11.9375L17.9972 11.9376C17.9652 11.9377 14.7707 11.9587 12.6365 12.1125L12.6083 12.1155C12.5856 12.1185 12.5605 12.1213 12.5333 12.1245C12.1864 12.1646 11.4645 12.2479 10.819 12.958C10.2886 13.5344 10.1353 14.6554 10.1195 14.7814L10.1177 14.7977C10.1129 14.8513 10 16.1271 10 17.4078V18.6051C10 19.8859 10.1129 21.1616 10.1177 21.2153L10.1185 21.2234C10.1321 21.3501 10.2668 22.4746 10.8212 23.0575C11.4264 23.7198 12.1916 23.8075 12.6033 23.8546C12.6683 23.8621 12.7244 23.8684 12.7626 23.8751L12.7995 23.8802C14.0209 23.9965 17.8501 24.0537 18.0124 24.056L18.0173 24.0562L18.0222 24.056C18.0542 24.0559 21.2485 24.0349 23.3637 23.8811L23.3917 23.8782C23.4184 23.8746 23.4484 23.8715 23.4814 23.868C23.8264 23.8314 24.5444 23.7554 25.181 23.0549C25.7114 22.4784 25.8648 21.3574 25.8804 21.2316L25.8823 21.2152C25.887 21.1615 26.0001 19.8859 26.0001 18.6051V17.4078C25.9999 16.1271 25.887 14.8514 25.8823 14.7977ZM25.0623 18.6051C25.0623 19.7905 24.9588 21.0114 24.949 21.1234C24.9092 21.4321 24.7475 22.1414 24.4891 22.4222C24.0906 22.8606 23.6813 22.9041 23.3825 22.9357C23.3464 22.9395 23.3129 22.9431 23.2827 22.9469C21.2368 23.0948 18.1629 23.1176 18.0213 23.1184C17.8625 23.1161 14.0893 23.0583 12.9053 22.9484C12.8446 22.9385 12.779 22.9309 12.71 22.9231C12.3595 22.8829 11.8798 22.828 11.5109 22.4222L11.5022 22.413C11.2483 22.1484 11.0912 21.4852 11.0513 21.1271C11.0438 21.0424 10.9376 19.8071 10.9376 18.6051V17.4078C10.9376 16.2238 11.0409 15.0043 11.0509 14.8899C11.0984 14.5262 11.2632 13.86 11.5109 13.5907C11.9215 13.139 12.3545 13.089 12.6409 13.0559C12.6682 13.0527 12.6937 13.0498 12.7173 13.0468C14.7929 12.8981 17.8889 12.876 18 12.8751C18.1111 12.8759 21.2059 12.8981 23.2631 13.0468C23.2884 13.0499 23.316 13.0531 23.3457 13.0565C23.6402 13.0901 24.0854 13.1409 24.494 13.5767L24.4977 13.5807C24.7517 13.8452 24.9088 14.52 24.9487 14.8854C24.9558 14.9653 25.0623 16.2032 25.0623 17.4078V18.6051Z" fill="#44220F"/>
</g>
<defs>
<clipPath id="clip0">
<rect width="16" height="16" fill="white" transform="translate(10 10)"/>
</clipPath>
</defs>
</svg>

<svg width="35" height="35" fill="none" xmlns="http://www.w3.org/2000/svg"><circle cx="17.5" cy="17.5" r="17" fill="#fff" stroke="#44220F"/><g clip-path="url(#clip0)" fill="#44220F"><path d="M20.463 17.281l-3.535-1.934a.644.644 0 0 0-.643.01.644.644 0 0 0-.318.56v3.835c0 .23.118.438.316.557a.647.647 0 0 0 .64.014l3.536-1.9a.65.65 0 0 0 .004-1.142zm-3.558 1.988v-2.866l2.642 1.445-2.642 1.421z"/><path d="M25.882 14.798v-.008c-.014-.128-.149-1.274-.706-1.856-.643-.686-1.373-.77-1.724-.809l-.08-.01-.028-.002c-2.115-.154-5.31-.175-5.341-.175h-.006c-.032 0-3.226.02-5.36.175l-.029.003-.075.008c-.347.04-1.069.124-1.714.834-.53.576-.684 1.697-.7 1.823l-.001.017c-.005.053-.118 1.33-.118 2.61v1.197c0 1.28.113 2.557.118 2.61v.008c.014.127.149 1.252.703 1.835.605.662 1.37.75 1.782.797.065.007.121.013.16.02l.037.005c1.22.117 5.05.174 5.212.176h.01c.032 0 3.227-.021 5.342-.175l.028-.003.09-.01c.344-.037 1.062-.113 1.699-.813.53-.577.684-1.698.7-1.823l.001-.017c.005-.053.118-1.33.118-2.61v-1.197c0-1.28-.113-2.557-.118-2.61zm-.82 3.807a32.8 32.8 0 0 1-.113 2.518c-.04.31-.202 1.018-.46 1.3-.398.438-.808.481-1.107.513a5.1 5.1 0 0 0-.1.01c-2.045.149-5.12.172-5.26.172-.16-.002-3.933-.06-5.117-.17a4.102 4.102 0 0 0-.195-.025c-.35-.04-.83-.095-1.2-.5l-.008-.01c-.254-.265-.41-.928-.45-1.286a32.723 32.723 0 0 1-.114-2.522v-1.197c0-1.184.103-2.404.113-2.518.047-.364.212-1.03.46-1.3.41-.451.844-.501 1.13-.534l.076-.01c2.076-.148 5.172-.17 5.283-.17.111 0 3.206.022 5.263.17l.083.01c.294.034.74.085 1.148.52l.004.005c.254.264.41.939.45 1.304.008.08.114 1.318.114 2.523v1.197z"/></g><defs><clipPath id="clip0"><path fill="#fff" transform="translate(10 10)" d="M0 0h16v16H0z"/></clipPath></defs></svg>
